X:490
T: Der alte Drudelsack (197c), S. 430
N: T0378
O: Luxemburg
S: Singendes Volk, Esch-Alzette, 1937 posth.]
N: Junglinster, fff Bertrang, um 1890
R: Hochzeits-, Ehestandslied]
M: 2/4
L: 1/8
K: G
D | GGGA | B2B
B | AGAB | G2z
B | BABc | d2d
d | cedc | B2z

